X:27
T:T018- Chiling O guiry (Sheela na Guira)
S:Thumoth, c 1745
Q:1/4=60
M:3/4
L:1/4
K:G
GBB|Gcc|GBB|{d/2}c2d|GBB|cAd|BGG|G3::\
e/2f/2gg|~g2a|ecc|{d/2}c3|e/2g/2aa|a2b|fdd|~d3|\
e/2f/2gg|~g2a|ecc|~d2c|BGG|cAA|BGG|G3:|]

